X:42
T: v Schottish JS
G:Lark15
O: Breton-from John Skelton
M:4/4
L:1/8
K:D
|:"D"A2AB A3G |GFEF "Bm"D2 EF|"G"G2G2G3F|"Em"EFGA "A"GFED|\
"D"A2AB A3G |GFEF "Bm"D2 EF|"G"G2GAG3F| "A"EFGA "D"D4:|
|:"D"A2A2 "Bm"d4|dcde "/A"cB A2|"G"G2GA "D"F2D2|"A" EDEA "D"FED2\
|"D"A2A2 "Bm"d4|dcde "/A"cB AF|"G"G2GA "D"F2D2|"A"EDEA "D"D4:|

